!!!COM: Bach, Johann Sebastian
!!!CDT: 1685/3//-1750/7/28/
!!!OTL@@DE: Valet will ich dir geben
!!!AGN: 4-Part Chorale
!!!SCT: BH 024
!!!SCT: BWV 415
**harm	**root	**kern	**kern	**kern	**kern
!	!	!bass	!tenor	!alto	!soprno
*	*Iorgan	*Iorgan	*Iorgan	*Iorgan	*Iorgan
*M4/4	*M4/4	*M4/4	*M4/4	*M4/4	*M4/4
*met(c)	*met(c)	*met(c)	*met(c)	*met(c)	*met(c)
*MM60	*MM60	*MM60	*MM60	*MM60	*MM60
*k[f#c#g#d#a#]	*k[f#c#g#d#a#]	*k[f#c#g#d#a#]	*k[f#c#g#d#a#]	*k[f#c#g#d#a#]	*k[f#c#g#d#a#]
*B:	*B:	*B:	*B:	*B:	*B:
*>[A,A,B]	*>[A,A,B]	*>[A,A,B]	*>[A,A,B]	*>[A,A,B]	*>[A,A,B]
*>A	*>A	*>A	*>A	*>A	*>A
I	4DD	8BB	8D#	4F#	4B
.	.	8AA#	8C#	.	.
=1	=1	=1	=1	=1	=1
I	4DD	8BB	8D#	4B	4f#
.	.	8C#	8E	.	.
Ib	4DD	8D#	8F#	4B	4f#
.	.	8BB	8D#	.	.
IV	4GG	8E	4E	4B	4g#
.	.	8D#	.	.	.
viiob	4CC#	4C#	8E	[4e	4a#
.	.	.	8F#	.	.
=2	=2	=2	=2	=2	=2
IVb	4GG	8GG#	4G#	4e]	2b
.	.	8AA#	.	.	.
I	4DD	4BB	8F#	8d#	.
.	.	.	8E	8c#	.
I;	4DD;	4BBB;	4F#;	4d#;	4b;
I	4DD	4B	4f#	8f#	4dd#
.	.	.	.	8g#	.
=3	=3	=3	=3	=3	=3
viioD7/vi	4AA#	4F##	4e	4a#	4cc#
vi7	4BB	8G#	4d#	4g#	4b
.	.	8F#	.	.	.
viioD7/V	4GG#	4E#	4d	4g#	4b
V	4AA	4F#	4c#	4f#	4a#
=4	=4	=4	=4	=4	=4
I;	2.DD;	2.BB;	2.d#y;	2.f#;	2.b;
=:|!	=:|!	=:|!	=:|!	=:|!	=:|!
*>B	*>B	*>B	*>B	*>B	*>B
I	4DD	4BB	8d#	4f#	8b
.	.	.	8e	.	8cc#
=5	=5	=5	=5	=5	=5
I	4DD	8B	4f#	4b	4dd#
.	.	8A#	.	.	.
vi	4BB	8G#	4B	8b	4dd#
.	.	8F#	.	8a#	.
Vb/V	8EE	8E#	8c#	8g#	4.cc#
V7/V	8EE	8C#	8B	8e#	.
iii	8FF#	8D#	8A#	8f#	.
viio/V	8GG#	8E#	8G#	8g#	8b
!!linebreak: 2
=6	=6	=6	=6	=6	=6
V	8AA	8F#	4F#	8c#	8a#
v7/vii	8GG#	8E#	.	8d#	8g#
Vb/iii	4CC#	8D#	4E#	4e#	4a#
.	.	8C##	.	.	.
iii;	4FF#;	4D#;	4A#;	4d#;	4f#;
iii7	4FF#	4D#	8d#	[4f#	4a#
.	.	.	8c#	.	.
=7	=7	=7	=7	=7	=7
vii/V	4GG#	8G#	4B	8f#]	4b
.	.	8GG#	.	8e#	.
Vb	4AA	8AA#	4c#	[4f#	4a#
.	.	8BB	.	.	.
II	8EE	8C#	8c#	4f#]	4g#
vi7b	8BB	8BB	8d#	.	.
II7	4EE	8C#	8c#	4e#	4g#
.	.	8CC#	8B	.	.
=8	=8	=8	=8	=8	=8
V;	2.AA;	2.FF#;	2.A#;	2.c#;	2.f#;
Vb	4AA	4AA#	4F#	4c#	4f#
=9	=9	=9	=9	=9	=9
I	4DD	8BB	4F#	4B	8d#
.	.	8C#	.	.	8e
I7	4DD	8D#	8B	4B	4f#
.	.	8BB	8A	.	.
IV	8GG	4E	8G#	8B	4g#
viio7c	8CC#	.	8A#	8c#	.
I7b	4DD	8D#	8B	4d#	4f#
.	.	8C#	8A	.	.
=10	=10	=10	=10	=10	=10
V7b/ii	4BB	4BB#	2G#	4d#	4f#
ii	4EE	4C#	.	4c#	8e
.	.	.	.	.	8d#
VI;	4BB;	4GG#;	4G#;	4B#;	4d#;
V7b/IV	4DD	4DD#	4A	4B	4f#
=11	=11	=11	=11	=11	=11
IV	4GG	8EE	4G#	4B	4e
.	.	8FF#	.	.	.
vi7	4BB	8GG#	4G#	[4B	4d#
.	.	8FF#	.	.	.
ii7	4EE	8EE	4G#	4B]	4c#
.	.	8CC#	.	.	.
V	4AA	4FF#	8F#	4A#	4c#
.	.	.	8E	.	.
=12	=12	=12	=12	=12	=12
I;	2.DD;	2.BBB;	2.D#;	2.F#;	2.B;
==	==	==	==	==	==
*-	*-	*-	*-	*-	*-
!!chor2scor: -l 2 -s 0.6 -o %b.pmx
!!!YEC: Copyright 1994, David Huron
!!!YEC: Changes/Additions 2001 by Craig Stuart Sapp
!!!YEN: United States of America
!!!SMA: 371 Bach Chorales, edited by Ludwig Erk, C.F. Peters
!!!PDT: 1850, 1865
!!!ONB: Harmony and Root analysis done manually
